korla/apps/scalable/kregexpeditor.svg

<svg width="48" height="48" xmlns="http://www.w3.org/2000/svg">
 <rect x="4" y="4" width="40" height="40" rx="2" fill="#5ca6ff"/>
 <rect x="6" y="17" width="36" height="14" rx="1" opacity=".1"/>
 <path d="m6 4c-1.108 0-2 .892-2 2v1c0-1.108.892-2 2-2h36c1.108 0 2 .892 2 2v-1c0-1.108-.892-2-2-2z" fill="#fff" opacity=".2"/>
 <path d="m6 45c-1.108 0-2-.892-2-2v-1c0 1.108.892 2 2 2h36c1.108 0 2-.892 2-2v1c0 1.108-.892 2-2 2z" opacity=".2"/>
 <rect x="6" y="16" width="36" height="14" rx="1" fill="#3e49db"/>
 <g transform="rotate(90)">
  <rect x="13" y="-20" width="15" height="9" rx=".5" opacity=".2"/>
  <rect x="12" y="-20" width="15" height="9" rx=".5" fill="#00f0d7"/>
  <rect x="13" y="-37" width="15" height="10" rx=".5" opacity=".2"/>
  <rect x="12" y="-37" width="15" height="10" rx=".5" fill="#fff528"/>
 </g>
 <rect transform="scale(-1)" x="-32" y="-36" width="16" height="13" rx="1" opacity=".1"/>
 <rect transform="scale(-1)" x="-32" y="-35" width="16" height="13" rx="1" fill="#cf4950"/>
 <path d="m11.5 12c-.277 0-.5.223-.5.5v1c0-.277.223-.5.5-.5h8c.277 0 .5.223.5.5v-1c0-.277-.223-.5-.5-.5z" fill="#fff" opacity=".2"/>
 <path d="m27.5 12c-.277 0-.5.223-.5.5v1c0-.277.223-.5.5-.5h9c.277 0 .5.223.5.5v-1c0-.277-.223-.5-.5-.5z" fill="#fff" opacity=".2"/>
</svg>

<svg xmlns="http://www.w3.org/2000/svg" width="48" height="48" version="1">
 <rect style="fill:#5ca6ff" width="40" height="40" x="4" y="4" rx="2" ry="2"/>
 <rect style="opacity:0.1" width="36" height="14" x="6" y="17" rx="1" ry="1"/>
 <path fill="#fff" style="opacity:0.2" d="m6 4c-1.108 0-2 0.892-2 2v1c0-1.108 0.892-2 2-2h36c1.108 0 2 0.892 2 2v-1c0-1.108-0.892-2-2-2h-36z"/>
 <path opacity=".2" d="m6 45c-1.108 0-2-0.892-2-2v-1c0 1.108 0.892 2 2 2h36c1.108 0 2-0.892 2-2v1c0 1.108-0.892 2-2 2h-36z"/>
 <rect style="fill:#3e49db" width="36" height="14" x="6" y="16" rx="1" ry="1"/>
 <rect style="opacity:0.2" width="15" height="9" x="13" y="-20" rx=".5" ry=".5" transform="rotate(90)"/>
 <rect style="fill:#00f0d7" width="15" height="9" x="12" y="-20" rx=".5" ry=".5" transform="rotate(90)"/>
 <rect style="opacity:0.2" width="15" height="10" x="13" y="-37" rx=".5" ry=".5" transform="rotate(90)"/>
 <rect style="fill:#fff528" width="15" height="10" x="12" y="-37" rx=".5" ry=".5" transform="rotate(90)"/>
 <rect style="opacity:0.1" width="16" height="13" x="-32" y="-36" rx="1" ry="1" transform="scale(-1)"/>
 <rect style="fill:#cf4950" width="16" height="13" x="-32" y="-35" rx="1" ry="1" transform="scale(-1)"/>
 <path style="opacity:0.2;fill:#ffffff" d="M 11.5 12 C 11.223 12 11 12.223 11 12.5 L 11 13.5 C 11 13.223 11.223 13 11.5 13 L 19.5 13 C 19.777 13 20 13.223 20 13.5 L 20 12.5 C 20 12.223 19.777 12 19.5 12 L 11.5 12 z"/>
 <path style="opacity:0.2;fill:#ffffff" d="M 27.5 12 C 27.223 12 27 12.223 27 12.5 L 27 13.5 C 27 13.223 27.223 13 27.5 13 L 36.5 13 C 36.777 13 37 13.223 37 13.5 L 37 12.5 C 37 12.223 36.777 12 36.5 12 L 27.5 12 z"/>
</svg>
